svg/about/detailedWork.svg

<svg width="38" height="57" viewBox="0 0 38 57" fill="none" xmlns="http://www.w3.org/2000/svg">
<path d="M19 23.75C9.82063 23.75 2.375 31.1933 2.375 40.375C2.375 49.5568 9.82063 57 19 57C28.1794 57 35.625 49.5568 35.625 40.375C35.625 31.1933 28.1794 23.75 19 23.75ZM19 54.625C11.1293 54.625 4.75 48.2434 4.75 40.375C4.75 32.5066 11.1293 26.125 19 26.125C26.8708 26.125 33.25 32.5066 33.25 40.375C33.25 48.2434 26.8708 54.625 19 54.625ZM9.5 0L23.6502 19H14.25L0 0H9.5ZM25.1845 17.0857L38 0H28.5L20.482 10.7682L25.1845 17.0857ZM19 28.5C12.4426 28.5 7.125 33.8176 7.125 40.375C7.125 46.9324 12.4426 52.25 19 52.25C25.5574 52.25 30.875 46.9324 30.875 40.375C30.875 33.8176 25.5574 28.5 19 28.5ZM21.375 47.5H19V38H14.25V35.9599C15.2902 35.9599 18.4443 35.8483 19.4085 33.25H21.375V47.5Z" fill="#E95C6D"/>
</svg>

<svg width="38" height="57" viewBox="0 0 38 57" fill="none" xmlns="http://www.w3.org/2000/svg"><path d="M19 23.75c-9.18 0-16.625 7.443-16.625 16.625S9.821 57 19 57c9.18 0 16.625-7.443 16.625-16.625S28.179 23.75 19 23.75zm0 30.875c-7.87 0-14.25-6.382-14.25-14.25s6.38-14.25 14.25-14.25 14.25 6.382 14.25 14.25-6.38 14.25-14.25 14.25zM9.5 0l14.15 19h-9.4L0 0h9.5zm15.684 17.086L38 0h-9.5l-8.018 10.768 4.703 6.318zM19 28.5c-6.557 0-11.875 5.318-11.875 11.875S12.443 52.25 19 52.25s11.875-5.318 11.875-11.875S25.557 28.5 19 28.5zm2.375 19H19V38h-4.75v-2.04c1.04 0 4.194-.112 5.159-2.71h1.966V47.5z" fill="#E95C6D"/></svg>
